X: 29
%%scale 0.7
T: Paddy McGinty's Goat
R: barndance
M: 4/4
L: 1/8
K: Gmaj
|:d>c|"G" B2B>A G2G>A|B>AB>c d2d>B|"Am" c>dc>B A>AA>B|c>Bc>d "D7" e2d>c|
"G" B2B>A G2G>A|B>AB>c d2d>B|"Am" c>cB>c "D" A>Ad>c|"G" (3BGG "C" G>G "G" G2:|
|:B>d|"G" g2g>g d2d>d|g2g>g d2d>e|"D" f>gf>e d>^cd>e|"A7" f>gf>e "D" d2d2|
"C" g>gg>e "G" d>dg>d|"D7" c>Bc>d "G" B2-B>B|"Am" c>cB>c "D7" A>Ad>c|"C" (3BGG "G" G>G G2:|

